X:488
T: SCHOENSTER SCHATZ MEIN ENGEL
N: F0928
O: Europa, Mitteleuropa, Deutschland
R: Liebes - Lied, Klage
M: 3/8
L: 1/16
K: F
A2B2 | c4f2 | c2A2z2
c2A2c2 | B4c2 | A4z2
c2A2F2 | G4cB | A2F2z2
c2A2F2 | G3FGA | F4z2 | z2

